learn-img.svg

<svg width="216" height="160" viewBox="0 0 216 160" fill="none" xmlns="http://www.w3.org/2000/svg" version="1.1">
<g filter="url(#filter0_bd)">
<path d="M140.782 58H71C59.9543 58 51 66.9543 51 78V128C51 139.046 59.9543 148 71 148H140.782C151.828 148 160.782 139.046 160.782 128V78C160.782 66.9543 151.828 58 140.782 58Z" fill="white" fill-opacity="0.5"/>
</g>
<g filter="url(#filter1_bd)">
<path d="M15.3765 66.7416C5.54115 61.7528 5.54117 53.6644 15.3765 48.6756L88.1915 11.7416C98.0269 6.7528 113.973 6.7528 123.808 11.7416L196.623 48.6756C206.459 53.6644 206.459 61.7528 196.623 66.7416L123.808 103.676C113.973 108.665 98.0269 108.665 88.1915 103.676L15.3765 66.7416Z" fill="white" fill-opacity="0.8"/>
</g>
<defs>
<filter id="filter0_bd" x="43" y="50" width="129.782" height="110" filterUnits="userSpaceOnUse" color-interpolation-filters="sRGB">
<feFlood flood-opacity="0" result="BackgroundImageFix"/>
<feGaussianBlur in="BackgroundImage" stdDeviation="2.5"/>
<feComposite in2="SourceAlpha" operator="in" result="effect1_backgroundBlur"/>
<feColorMatrix in="SourceAlpha" type="matrix" values="0 0 0 0 0 0 0 0 0 0 0 0 0 0 0 0 0 0 127 0"/>
<feOffset dx="2" dy="2"/>
<feGaussianBlur stdDeviation="5"/>
<feColorMatrix type="matrix" values="0 0 0 0 0 0 0 0 0 0 0 0 0 0 0 0 0 0 0.25 0"/>
<feBlend mode="normal" in2="effect1_backgroundBlur" result="effect2_dropShadow"/>
<feBlend mode="normal" in="SourceGraphic" in2="effect2_dropShadow" result="shape"/>
</filter>
<filter id="filter1_bd" x="0" y="0" width="216" height="119.417" filterUnits="userSpaceOnUse" color-interpolation-filters="sRGB">
<feFlood flood-opacity="0" result="BackgroundImageFix"/>
<feGaussianBlur in="BackgroundImage" stdDeviation="2.5"/>
<feComposite in2="SourceAlpha" operator="in" result="effect1_backgroundBlur"/>
<feColorMatrix in="SourceAlpha" type="matrix" values="0 0 0 0 0 0 0 0 0 0 0 0 0 0 0 0 0 0 127 0"/>
<feOffset dx="2" dy="2"/>
<feGaussianBlur stdDeviation="5"/>
<feColorMatrix type="matrix" values="0 0 0 0 0 0 0 0 0 0 0 0 0 0 0 0 0 0 0.25 0"/>
<feBlend mode="normal" in2="effect1_backgroundBlur" result="effect2_dropShadow"/>
<feBlend mode="normal" in="SourceGraphic" in2="effect2_dropShadow" result="shape"/>
</filter>
</defs>
</svg>

<svg width="216" height="160" fill="none" xmlns="http://www.w3.org/2000/svg"><g filter="url(#filter0_bd)"><path d="M140.782 58H71c-11.046 0-20 8.954-20 20v50c0 11.046 8.954 20 20 20h69.782c11.046 0 20-8.954 20-20V78c0-11.046-8.954-20-20-20z" fill="#fff" fill-opacity=".5"/></g><g filter="url(#filter1_bd)"><path d="M15.377 66.742c-9.836-4.99-9.836-13.078 0-18.066L88.19 11.742c9.836-4.99 25.782-4.99 35.617 0l72.815 36.934c9.836 4.988 9.836 13.077 0 18.066l-72.815 36.934c-9.835 4.989-25.781 4.989-35.617 0L15.378 66.742z" fill="#fff" fill-opacity=".8"/></g><defs><filter id="filter0_bd" x="43" y="50" width="129.782" height="110" filterUnits="userSpaceOnUse" color-interpolation-filters="sRGB"><feFlood flood-opacity="0" result="BackgroundImageFix"/><feGaussianBlur in="BackgroundImage" stdDeviation="2.5"/><feComposite in2="SourceAlpha" operator="in" result="effect1_backgroundBlur"/><feColorMatrix in="SourceAlpha" values="0 0 0 0 0 0 0 0 0 0 0 0 0 0 0 0 0 0 127 0"/><feOffset dx="2" dy="2"/><feGaussianBlur stdDeviation="5"/><feColorMatrix values="0 0 0 0 0 0 0 0 0 0 0 0 0 0 0 0 0 0 0.25 0"/><feBlend in2="effect1_backgroundBlur" result="effect2_dropShadow"/><feBlend in="SourceGraphic" in2="effect2_dropShadow" result="shape"/></filter><filter id="filter1_bd" x="0" y="0" width="216" height="119.417" filterUnits="userSpaceOnUse" color-interpolation-filters="sRGB"><feFlood flood-opacity="0" result="BackgroundImageFix"/><feGaussianBlur in="BackgroundImage" stdDeviation="2.5"/><feComposite in2="SourceAlpha" operator="in" result="effect1_backgroundBlur"/><feColorMatrix in="SourceAlpha" values="0 0 0 0 0 0 0 0 0 0 0 0 0 0 0 0 0 0 127 0"/><feOffset dx="2" dy="2"/><feGaussianBlur stdDeviation="5"/><feColorMatrix values="0 0 0 0 0 0 0 0 0 0 0 0 0 0 0 0 0 0 0.25 0"/><feBlend in2="effect1_backgroundBlur" result="effect2_dropShadow"/><feBlend in="SourceGraphic" in2="effect2_dropShadow" result="shape"/></filter></defs></svg>
